contributed-vectors/inshot_alt.svg

<svg xmlns="http://www.w3.org/2000/svg" xml:space="preserve" style="fill-rule:evenodd;clip-rule:evenodd;stroke-linejoin:round;stroke-miterlimit:2" viewBox="0 0 192 192"><path d="M164.5 21.5c0-5.519-4.481-10-10-10h-133c-5.519 0-10 4.481-10 10v133c0 5.519 4.481 10 10 10h133c5.519 0 10-4.481 10-10v-133Z" style="fill:#ffb0ac" transform="translate(8 8)"/><path d="M58.349 68.345v58.262a7.046 7.046 0 0 0 7.046 7.047h87.719a4.093 4.093 0 0 1 4.093 4.093v3.885a4.094 4.094 0 0 1-4.093 4.093H65.75c-10.755 0-19.473-8.718-19.473-19.473V68.345h12.072Zm-12.072-10V38.893A4.093 4.093 0 0 1 50.37 34.8h3.885c1.086 0 2.127.431 2.895 1.198a4.097 4.097 0 0 1 1.199 2.895v19.452H46.277Z" style="fill:#fff" transform="translate(14.559 14.558) scale(.84835)"/><path d="M145.73 133.653v19.453a4.097 4.097 0 0 1-4.094 4.094h-3.885a4.097 4.097 0 0 1-4.093-4.094v-19.453h12.072Zm-12.072-10V65.392a7.046 7.046 0 0 0-7.047-7.047H38.893a4.093 4.093 0 0 1-4.093-4.093v-3.884a4.094 4.094 0 0 1 4.093-4.094h87.364c10.755.001 19.473 8.719 19.473 19.473v57.906h-12.072Z" style="fill:#fff" transform="translate(14.559 14.558) scale(.84835)"/><path d="M96 68.221c15.332 0 27.779 12.447 27.779 27.779S111.332 123.779 96 123.779 68.221 111.332 68.221 96 80.668 68.221 96 68.221Zm0 11.952c8.735 0 15.827 7.092 15.827 15.827S104.735 111.827 96 111.827 80.173 104.735 80.173 96 87.265 80.173 96 80.173Z" style="fill:#fff" transform="translate(14.559 14.558) scale(.84835)"/></svg>

<?xml version="1.0" encoding="UTF-8" standalone="no"?>
<!DOCTYPE svg PUBLIC "-//W3C//DTD SVG 1.1//EN" "http://www.w3.org/Graphics/SVG/1.1/DTD/svg11.dtd">
<svg width="100%" height="100%" viewBox="0 0 192 192" version="1.1" xmlns="http://www.w3.org/2000/svg" xmlns:xlink="http://www.w3.org/1999/xlink" xml:space="preserve" xmlns:serif="http://www.serif.com/" style="fill-rule:evenodd;clip-rule:evenodd;stroke-linejoin:round;stroke-miterlimit:2;">
    <g id="Layer1">
        <g transform="matrix(1,0,0,1,8,8)">
            <path d="M164.5,21.5C164.5,15.981 160.019,11.5 154.5,11.5L21.5,11.5C15.981,11.5 11.5,15.981 11.5,21.5L11.5,154.5C11.5,160.019 15.981,164.5 21.5,164.5L154.5,164.5C160.019,164.5 164.5,160.019 164.5,154.5L164.5,21.5Z" style="fill:rgb(255,176,172);"/>
        </g>
        <g transform="matrix(0.848352,0,0,0.848352,14.5587,14.5581)">
            <path d="M58.349,68.345L58.349,126.607C58.349,128.476 59.091,130.268 60.413,131.59C61.734,132.911 63.526,133.654 65.395,133.654C84.686,133.654 137.926,133.654 153.114,133.654C155.374,133.654 157.207,135.486 157.207,137.747C157.207,139 157.207,140.378 157.207,141.632C157.207,143.892 155.374,145.725 153.114,145.725C139.118,145.725 92.56,145.725 65.75,145.725C54.995,145.725 46.277,137.007 46.277,126.252L46.277,68.345L58.349,68.345ZM46.277,58.345L46.277,38.893C46.277,37.807 46.708,36.766 47.476,35.998C48.244,35.231 49.285,34.8 50.37,34.8C51.624,34.8 53.002,34.8 54.255,34.8C55.341,34.8 56.382,35.231 57.15,35.998C57.917,36.766 58.349,37.807 58.349,38.893L58.349,58.345L46.277,58.345Z" style="fill:white;"/>
            <path d="M145.73,133.653L145.73,153.106C145.73,154.192 145.298,155.233 144.531,156.001C143.763,156.768 142.722,157.2 141.636,157.2C140.383,157.2 139.005,157.2 137.751,157.2C136.666,157.2 135.625,156.768 134.857,156.001C134.089,155.233 133.658,154.192 133.658,153.106L133.658,133.653L145.73,133.653ZM133.658,123.653L133.658,65.392C133.658,63.523 132.916,61.731 131.594,60.409C130.273,59.088 128.48,58.345 126.611,58.345C107.321,58.345 54.081,58.345 38.893,58.345C36.633,58.345 34.8,56.513 34.8,54.252C34.8,52.999 34.8,51.621 34.8,50.368C34.8,48.107 36.633,46.275 38.893,46.274C52.888,46.274 99.447,46.274 126.257,46.274C137.012,46.275 145.73,54.993 145.73,65.747L145.73,123.653L133.658,123.653Z" style="fill:white;"/>
            <path d="M96,68.221C111.332,68.221 123.779,80.668 123.779,96C123.779,111.332 111.332,123.779 96,123.779C80.668,123.779 68.221,111.332 68.221,96C68.221,80.668 80.668,68.221 96,68.221ZM96,80.173C104.735,80.173 111.827,87.265 111.827,96C111.827,104.735 104.735,111.827 96,111.827C87.265,111.827 80.173,104.735 80.173,96C80.173,87.265 87.265,80.173 96,80.173Z" style="fill:white;"/>
        </g>
    </g>
</svg>
